resources/svg/solid/calculator.svg

<svg xmlns="http://www.w3.org/2000/svg" fill="currentColor" stroke="none" viewBox="0 0 24 24"><path d="M6 22h12a2 2 0 0 0 2-2V4a2 2 0 0 0-2-2H6a2 2 0 0 0-2 2v16a2 2 0 0 0 2 2zm3-3H7v-2h2v2zm0-4H7v-2h2v2zm0-4H7V9h2v2zm4 8h-2v-2h2v2zm0-4h-2v-2h2v2zm0-4h-2V9h2v2zm4 8h-2v-6h2v6zm0-8h-2V9h2v2zM6 4h12v3H6V4z"/></svg>

<svg xmlns="http://www.w3.org/2000/svg" fill="currentColor" stroke="none" viewBox="0 0 24 24"><path d="M6,22h12c1.104,0,2-0.896,2-2V4c0-1.104-0.896-2-2-2H6C4.896,2,4,2.896,4,4v16C4,21.104,4.896,22,6,22z M9,19H7v-2h2V19z M9,15H7v-2h2V15z M9,11H7V9h2V11z M13,19h-2v-2h2V19z M13,15h-2v-2h2V15z M13,11h-2V9h2V11z M17,19h-2v-6h2V19z M17,11h-2V9h2V11z M6,4h12v3H6V4z"/></svg>
